X:1
T:Drag Her Round The Road
L:1/8
M:4/4
I:linebreak $
K:Emin
V:1 treble 
V:1
 B E3 E2 DE | GE D2 Dd | B E3 B E3 | GABG A2 GA | B E3 E2 DE | GE D2 D2 GA | B E3 E2 DE |$ %7
 GABG A2 G2 | G2 GF GBdB | cBAB cded | BGAF GBdg | ecAF GFED | G2 GF GBdB |$ cBAB cded | %14
 BGAF G2 Bd | eaaf g2 GA | %16
